svg/mfixx/mariadb.svg

<svg version="1.1" xmlns="http://www.w3.org/2000/svg" xmlns:xlink="http://www.w3.org/1999/xlink" x="0px" y="0px" width="512px" height="512px"><path d="M126.7508926,307.6199341c-15.8108978,13.6296692-16.1906509,25.6604004-32.7103806,42.7546082C76.3707352,368.6593323,23.81637,350.6554565,0,378.6405029c7.6732655,7.7588196,11.0112762,9.9242554,26.1328964,7.9111633c-3.1307735,5.9338684-21.5679607,10.914917-17.9552994,19.6439209c3.8012066,9.1852417,48.41782,15.4203796,88.9769516-9.0663452c18.8884964-11.4038696,33.9589767-27.8092651,63.3770218-31.7325439c38.067749-5.0737915,81.8837128,3.2447815,125.954483,9.5998535c-6.5344849,19.4836426-19.6234436,32.3927307-30.1329956,47.9105225c-3.2543182,3.5050659,6.519165,3.8960876,17.6887207,1.7778625c20.0929871-4.9683838,34.6128845-8.9509277,49.7770691-17.7773743c18.6291809-10.8451843,21.4085083-38.6053162,44.2661133-44.6217651c12.7357788,19.5747986,47.3938904,24.1900024,68.8865356,8.5333252c-18.860321-5.3382874-24.0551758-45.5093689-17.6886902-63.1976013c6.0302124-16.744812,11.9711304-43.5536804,18.0438843-65.688385c6.5201111-23.7717896,8.9090271-53.670166,16.7995605-65.77565c11.8718262-18.2181396,24.9664307-24.4820404,36.35495-34.7549133c11.3889771-10.2727356,21.8528442-20.3149185,21.5106201-43.8217621c-0.11026-7.5712891-3.9977112-11.7855606-11.1994324-11.5555725c-7.9127197,0.2526932-5.4793396,2.5478516-22.5771484,6.7554779c-17.2654724,4.2489166-38.2958069,2.9579468-56.8886719,10.7555542c-55.4998169,23.2761459-66.6981506,102.7890625-117.1547852,131.2846222C244.874115,269.0832825,193.6313782,249.9176941,126.7508926,307.6199341z M505.5923462,104.6917953c-2.4048462,0.9019547-10.8243408-0.4487305-12.6221008-1.6891861C491.1875,102.09375,487.78125,97.03125,488.8814697,96.069458c4.3268738-2.4652939,7.3893738-5.7777939,9.6891785-5.6886292c4.8876953-0.047493,5.2626953-0.047493,7.4664917,2.311203c0.651123,0.9440918,0.848053,2.1005325,1.0566101,3.1204681C508.0730591,100.6019363,506.9589844,103.9411087,505.5923462,104.6917953z M481.6819763,106.2915115c-3.8723145,4.0914154-16.4582825,17.6324005-20.4441223,29.9551468c-0.7061768,2.1069336-2.8114014,3.0076752-1.7778625-0.2665253c4.0204163-12.0039825,15.1072388-24.9263763,20.7110901-30.6660004C482.3409729,103.1756363,483.3544006,104.2621918,481.6819763,106.2915115z M483.7265015,109.13591c-3.2601318,4.5953522-13.8705444,15.235321-16.0886841,27.9994354c-0.3986816,2.1838989-2.338562,3.3854065-1.77771,0c2.2949524-12.4509888,11.4367065-22.2388611,16.1773682-28.7107697C483.5962219,106.2646561,485.2033997,106.5626678,483.7265015,109.13591z M485.9482422,111.624794c-2.8614502,4.8545151-9.7941284,13.7624512-10.9333801,26.6663895c-0.2106934,2.2123566-1.9622803,3.5084991-1.6888733,0.0886841c1.241394-12.5959778,6.7532959-20.4353485,10.9333801-27.2885742C485.9529419,108.5294113,487.0235291,109.2823563,485.9482422,111.624794z M488.3484497,113.5803299c-2.4258423,5.0880356-7.0218506,11.6699066-7.0218506,24.6220169c-0.0204773,2.2236176-1.7492371,3.6946106-1.77771,0.266983c0.1251526-12.6590042,3.552002-18.1408691,7.111145-25.3328781C488.1977844,110.6505508,489.2916565,110.9166641,488.3484497,113.5803299z M449.5931396,117.7579269c3.4194946,15.7535019-15.6796875,22.14048-24.7993774,14.2221298C425.4276733,126.3262024,431.1644592,115.9282837,449.5931396,117.7579269z M406.660614,327.2633362c0.7687378,12.3058472,7.9150085,36.7327576,14.2218933,42.6659851c-12.3515015,3.0037842-33.5632629-1.9539795-39.0214844-10.6663818C384.6655273,346.6838379,399.1924133,335.1672974,406.660614,327.2633362z"/></svg>

<svg xmlns="http://www.w3.org/2000/svg" width="512" height="512"><path d="M126.75 307.62c-15.81 13.63-16.19 25.66-32.71 42.755-17.67 18.284-70.224.28-94.04 28.266 7.673 7.758 11.011 9.924 26.133 7.91-3.13 5.935-21.568 10.916-17.955 19.645 3.8 9.185 48.417 15.42 88.977-9.067 18.888-11.404 33.959-27.809 63.377-31.732 38.067-5.074 81.883 3.244 125.954 9.6-6.534 19.483-19.623 32.392-30.133 47.91-3.254 3.505 6.52 3.896 17.689 1.778 20.093-4.968 34.613-8.951 49.777-17.777 18.629-10.846 21.408-38.606 44.266-44.622 12.736 19.575 47.394 24.19 68.886 8.533-18.86-5.338-24.055-45.51-17.688-63.197 6.03-16.745 11.97-43.554 18.044-65.689 6.52-23.772 8.909-53.67 16.8-65.776 11.871-18.218 24.966-24.482 36.354-34.754 11.39-10.273 21.853-20.315 21.51-43.822-.11-7.571-3.997-11.786-11.199-11.556-7.912.253-5.479 2.548-22.577 6.756-17.265 4.249-38.296 2.958-56.888 10.755-55.5 23.276-66.699 102.79-117.155 131.285-59.298 34.262-110.54 15.097-177.421 72.799zm378.842-202.928c-2.404.902-10.824-.449-12.622-1.69-1.783-.908-5.189-5.97-4.089-6.933 4.327-2.465 7.39-5.777 9.69-5.688 4.887-.048 5.262-.048 7.466 2.311.651.944.848 2.1 1.057 3.12.98 4.79-.135 8.13-1.502 8.88zm-23.91 1.6c-3.872 4.09-16.458 17.632-20.444 29.955-.706 2.107-2.812 3.007-1.778-.267 4.02-12.004 15.107-24.926 20.711-30.666 2.17-2.138 3.183-1.052 1.511.978zm2.045 2.844c-3.26 4.595-13.871 15.235-16.09 28-.398 2.183-2.338 3.385-1.777 0 2.295-12.452 11.437-22.24 16.177-28.711 1.56-2.16 3.166-1.862 1.69.71zm2.221 2.489c-2.861 4.854-9.794 13.762-10.933 26.666-.21 2.213-1.962 3.509-1.689.089 1.241-12.596 6.753-20.435 10.933-27.289 1.694-2.562 2.765-1.809 1.69.534zm2.4 1.955c-2.425 5.088-7.021 11.67-7.021 24.622-.02 2.224-1.75 3.695-1.778.267.125-12.659 3.552-18.14 7.111-25.333 1.538-2.485 2.632-2.22 1.688.444zm-38.755 4.178c3.42 15.753-15.68 22.14-24.8 14.222.635-5.654 6.371-16.052 24.8-14.222zm-42.932 209.505c.768 12.306 7.915 36.733 14.222 42.666-12.352 3.004-33.564-1.954-39.022-10.666 2.805-12.58 17.331-24.096 24.8-32z"/></svg>
